X:0655
M:6/4
L:1/4
Q:3/4=104
K:G
   ded  e2f|g3  g3 |BcB c2d|e3- e3 |dcB cde|dcd D2D|EFG  AFD |G3 G3:|
   BAB  DGB|AGA DFA|GFG EAG|F3  D3 |dBd dBd|ece efg|dcB  cAF |G3 G3:|

